mon-pix/public/images/illustrations/attestations/EDUVEILLE.svg

<svg xmlns="http://www.w3.org/2000/svg" width="105" height="112" fill="none" viewBox="0 0 105 112"><g fill-rule="evenodd" clip-path="url(#a)" clip-rule="evenodd"><path fill="#ffdca1" d="M82.27 6.85c7.95-2.88 16.75 1.2 19.64 9.11s-1.21 16.67-9.16 19.54L82.27 6.84z"/><path fill="#ffe9bf" d="M99.67 14.05c.05.21.17.47.34.74-.02 0 .15.21.3.42s.28.42.16.42c-.05 0-.09-.02-.13-.04.2.19.18.24.08.24-.05 0-.11-.01-.18-.02s-.13-.02-.2-.02c-.14 0-.22.06-.05.33l-.49-.31c1.1 4.24-.82 8.69-4.6 10.83l1.26 3.46c5.06-1.84 7.67-7.41 5.83-12.44a9.64 9.64 0 0 0-2.34-3.6"/><path fill="#ffc675" d="M89.65 8.13c-.94 0-1.89.11-2.84.33-.15.04.02.47.32 1.03l-.32.06c-.07.02-.07.12-.02.28-.09.1.07.48.34.99l-.32.06c-.47.11 2.11 3.92 2.11 3.92 1.39-.51 2.82-.74 4.23-.74 2.26 0 4.46.62 6.37 1.75-.08-.31-.17-.61-.28-.91-.26-.71-.6-1.39-1.01-2.02.51.34 1 .73 1.45 1.16-.06-.26-.03-.44.12-.44.06 0 .13.03.23.09-2.3-3.49-6.23-5.57-10.37-5.57z"/><path fill="#ffd18b" d="M98.22 12.89a9.8 9.8 0 0 1 1.29 2.93l.49.31c-.18-.27-.1-.33.05-.33.06 0 .13.01.2.02l.17.02c.1 0 .11-.05-.08-.24.06.03.1.04.13.04.12 0 0-.21-.16-.42l-.31-.42c-.17-.26-.29-.53-.34-.74-.45-.43-.93-.82-1.45-1.16"/><path fill="#3ad0f9" d="M88.36 37.1 42.65 51.16l-8.87-24.25L77.87 8.44z"/><path fill="#00b3f9" d="m38.45 32.97 1.61 4.41-2.44.88-1.91-5.21-1.6-4.4L78.2 10.18l1.94 5.33z"/><path fill="#3ad0f9" d="M94.4 39.91c-2.45.89-5.15-.37-6.04-2.8L77.88 8.45a4.68 4.68 0 0 1 2.82-6.01c2.45-.89 5.15.37 6.04 2.8L97.22 33.9a4.68 4.68 0 0 1-2.82 6.01"/><path fill="#00b3f9" d="m79.93 15.47-1.95-5.34c-.21-.58-.3-1.19-.27-1.81.03-.61.18-1.22.44-1.78s.63-1.06 1.09-1.47c.45-.41.99-.74 1.57-.95.52-.19 1.07-.29 1.62-.28 1.93 0 3.74 1.17 4.43 3.08l.26.7.2.56a4.7 4.7 0 0 0-2.15.25c-2.44.89-3.71 3.59-2.82 6.02l-2.4 1.01z"/><path fill="#3ad0f9" d="m18.88 54.77 22.15-8.02-5.64-15.43-22.16 8.02z"/><path fill="#00b3f9" d="m17.91 45.4.8 2.2-2.44.88-1.91-5.2-.8-2.21 22.15-8.02 1.91 5.21z"/><path fill="#e8f3ff" d="m6.99 56.58 11.08-4.01-4.03-11.02-11.08 4.01z"/><path fill="#3ad0f9" d="M18.84 52.47 7.77 56.48l-1.91-5.21 8.63-3.13.81 2.21 2.44-.88z"/><path fill="#b8daf2" d="m3.56 47.19-.27.1 4.03 11.02 2.44-.88-.54-1.48-1.45.53-.06-.16-.72.26z"/><path fill="#00b3f9" d="m14.36 43.28-10.8 3.91 3.43 9.39.72-.26-1.85-5.05 8.63-3.13.32.88 1.46-.53z"/><path fill="#102770" d="M42.65 53.3c-.88 0-1.71-.54-2.02-1.41l-8.87-24.25c-.19-.52-.17-1.09.05-1.59.22-.51.63-.9 1.14-1.12L77.04 6.47a2.18 2.18 0 0 1 1.7.01c.54.24.96.68 1.16 1.23l10.48 28.66c.1.27.14.56.13.85-.02.29-.09.57-.22.83s-.31.49-.53.68-.48.33-.76.41L43.29 53.2c-.21.06-.42.09-.64.09zM36.5 28.09l7.47 20.42 41.59-12.79-8.94-24.43zm60.46 7.25c-.64 0-1.27-.28-1.7-.82a2.13 2.13 0 0 1 .37-3.01c4.51-3.52 6.22-9.47 4.26-14.81a13.155 13.155 0 0 0-12.82-8.62c-.28.01-.56-.03-.83-.13-.26-.1-.51-.25-.71-.44a2.14 2.14 0 0 1-.68-1.5 2.15 2.15 0 0 1 2.08-2.22 17.38 17.38 0 0 1 17.01 11.44c2.6 7.09.33 14.98-5.65 19.65-.38.3-.85.46-1.33.46"/><path fill="#102770" d="M18.88 56.92c-.88 0-1.71-.54-2.02-1.41l-5.65-15.43a2.13 2.13 0 0 1 .07-1.64c.12-.26.29-.48.5-.67s.45-.34.72-.43l22.16-8.02c.54-.2 1.13-.17 1.65.07s.92.67 1.11 1.21l5.64 15.43c.1.27.14.55.13.83s-.08.56-.2.81-.29.48-.5.67-.45.34-.72.43l-22.16 8.02c-.24.09-.48.13-.74.13zm-2.89-16.3 4.17 11.4 18.11-6.56-4.17-11.4zm76.8 1.71c-2.81 0-5.45-1.72-6.46-4.5L75.85 9.17c-.63-1.72-.55-3.57.23-5.23.38-.82.92-1.55 1.58-2.15.67-.61 1.44-1.08 2.29-1.38 1.72-.62 3.59-.54 5.25.23s2.92 2.14 3.55 3.86l10.48 28.66c1.3 3.54-.55 7.47-4.1 8.76-.75.27-1.54.41-2.34.41M82.3 4.29c-.3 0-.59.05-.88.15-.64.23-1.16.7-1.44 1.32-.14.3-.22.63-.24.97-.02.33.04.67.15.98l10.48 28.66c.24.64.71 1.15 1.33 1.44.61.29 1.32.32 1.96.08.32-.11.6-.29.85-.52a2.56 2.56 0 0 0 .83-1.77c.02-.33-.04-.67-.15-.98L84.71 5.96a2.57 2.57 0 0 0-2.41-1.68z"/><path fill="#102770" d="M56.1 57.95c-.57 0-1.12-.22-1.52-.63-.4-.4-.63-.95-.63-1.52v-7.04c0-.57.23-1.12.63-1.52s.95-.63 1.52-.63 1.12.23 1.52.63.63.95.63 1.52v7.04c0 .57-.23 1.12-.63 1.52s-.95.63-1.52.63m-49.11.77c-.88 0-1.71-.54-2.03-1.41L.94 46.29c-.1-.27-.14-.55-.13-.83s.08-.56.2-.81c.12-.26.29-.48.5-.67s.45-.34.72-.43l11.08-4.01c.54-.2 1.13-.17 1.65.07s.92.67 1.11 1.21l4.03 11.02c.41 1.11-.17 2.34-1.29 2.75L7.73 58.6c-.24.09-.49.13-.74.13zM5.72 46.84l2.56 6.99 7.03-2.54-2.56-6.99-7.03 2.55z"/><path fill="#fff6e1" d="M60.81 60.5c0 2.59-2.11 4.69-4.72 4.69s-4.72-2.1-4.72-4.69 2.11-4.69 4.72-4.69 4.72 2.1 4.72 4.69"/><path fill="#102770" d="M56.1 67.33c-3.79 0-6.87-3.07-6.87-6.84s3.08-6.83 6.87-6.83 6.87 3.07 6.87 6.83-3.08 6.84-6.87 6.84m0-9.38c-1.41 0-2.56 1.14-2.56 2.55a2.56 2.56 0 0 0 2.56 2.56 2.56 2.56 0 0 0 2.56-2.56c0-1.41-1.15-2.55-2.56-2.55"/><path fill="#102770" d="M56.1 111.04c-1.19 0-2.15-1.17-2.15-2.61V65.64c0-1.44.96-2.61 2.15-2.61s2.15 1.17 2.15 2.61v42.79c0 1.44-.96 2.61-2.15 2.61"/><path fill="#102770" d="M91.46 102.52c-.28 0-.56-.05-.82-.16s-.5-.27-.7-.47L54.57 66.7c-.84-.84-.84-2.19 0-3.03.4-.4.95-.63 1.52-.63s1.12.23 1.52.63l35.37 35.19c.84.84.84 2.19 0 3.03-.2.2-.44.36-.7.47s-.54.16-.82.16"/><path fill="#102770" d="M7.8 60.93c-.88 0-1.71-.54-2.02-1.41L.13 44.09c-.1-.27-.14-.55-.13-.83s.08-.56.2-.81c.12-.26.29-.48.5-.67s.45-.34.72-.43c.54-.19 1.13-.17 1.64.07.52.24.92.67 1.12 1.21l5.64 15.43c.41 1.11-.17 2.34-1.29 2.75-.24.09-.49.13-.74.13zm12.93 41.59c-.28 0-.56-.05-.82-.16s-.5-.27-.7-.47c-.84-.84-.84-2.19 0-3.03l35.37-35.19c.4-.4.95-.63 1.52-.63s1.12.23 1.52.63c.84.84.84 2.19 0 3.03l-35.37 35.19c-.2.2-.44.36-.7.47s-.54.16-.82.16"/><path fill="#9ae0e6" d="M31.01 67.1s-.06.07-.1.1c.03.03.07.06.1.1.03-.03.06-.07.1-.1-.03-.03-.07-.06-.1-.1"/></g><defs><clipPath id="a"><path fill="#fff" d="M0 0h105v111.04H0z"/></clipPath></defs></svg>

<svg width="105" height="112" viewBox="0 0 105 112" fill="none" xmlns="http://www.w3.org/2000/svg">
<g clip-path="url(#clip0_1_121)">
<path fill-rule="evenodd" clip-rule="evenodd" d="M82.27 6.85C90.22 3.97 99.02 8.05 101.91 15.96C104.8 23.87 100.7 32.63 92.75 35.5L82.27 6.84V6.85Z" fill="#FFDCA1"/>
<path fill-rule="evenodd" clip-rule="evenodd" d="M99.67 14.05C99.72 14.26 99.84 14.52 100.01 14.79C99.99 14.79 100.16 15 100.31 15.21C100.46 15.42 100.59 15.63 100.47 15.63C100.42 15.63 100.38 15.61 100.34 15.59C100.54 15.78 100.52 15.83 100.42 15.83C100.37 15.83 100.31 15.82 100.24 15.81C100.17 15.8 100.11 15.79 100.04 15.79C99.9 15.79 99.82 15.85 99.99 16.12L99.5 15.81C100.6 20.05 98.68 24.5 94.9 26.64L96.16 30.1C101.22 28.26 103.83 22.69 101.99 17.66C101.47 16.25 100.66 15.04 99.65 14.06" fill="#FFE9BF"/>
<path fill-rule="evenodd" clip-rule="evenodd" d="M89.65 8.13C88.71 8.13 87.76 8.24 86.81 8.46C86.66 8.5 86.83 8.93 87.13 9.49L86.81 9.55C86.74 9.57 86.74 9.67 86.79 9.83C86.7 9.93 86.86 10.31 87.13 10.82L86.81 10.88C86.34 10.99 88.92 14.8 88.92 14.8C90.31 14.29 91.74 14.06 93.15 14.06C95.41 14.06 97.61 14.68 99.52 15.81C99.44 15.5 99.35 15.2 99.24 14.9C98.98 14.19 98.64 13.51 98.23 12.88C98.74 13.22 99.23 13.61 99.68 14.04C99.62 13.78 99.65 13.6 99.8 13.6C99.86 13.6 99.93 13.63 100.03 13.69C97.73 10.2 93.8 8.12 89.66 8.12L89.65 8.13Z" fill="#FFC675"/>
<path fill-rule="evenodd" clip-rule="evenodd" d="M98.22 12.89C98.62 13.51 98.97 14.18 99.23 14.91C99.34 15.21 99.43 15.51 99.51 15.82L100 16.13C99.82 15.86 99.9 15.8 100.05 15.8C100.11 15.8 100.18 15.81 100.25 15.82L100.42 15.84C100.52 15.84 100.53 15.79 100.34 15.6C100.4 15.63 100.44 15.64 100.47 15.64C100.59 15.64 100.47 15.43 100.31 15.22L100 14.8C99.83 14.54 99.71 14.27 99.66 14.06C99.21 13.63 98.73 13.24 98.21 12.9" fill="#FFD18B"/>
<path fill-rule="evenodd" clip-rule="evenodd" d="M88.36 37.1L42.65 51.16L33.78 26.91L77.87 8.44L88.36 37.1Z" fill="#3AD0F9"/>
<path fill-rule="evenodd" clip-rule="evenodd" d="M38.45 32.97L40.06 37.38L37.62 38.26L35.71 33.05L34.11 28.65L78.2 10.18L80.14 15.51L38.45 32.97Z" fill="#00B3F9"/>
<path fill-rule="evenodd" clip-rule="evenodd" d="M94.4 39.91C91.95 40.8 89.25 39.54 88.36 37.11L77.88 8.45C76.99 6.02 78.25 3.32 80.7 2.44C83.15 1.55 85.85 2.81 86.74 5.24L97.22 33.9C98.11 36.33 96.85 39.03 94.4 39.91Z" fill="#3AD0F9"/>
<path fill-rule="evenodd" clip-rule="evenodd" d="M79.93 15.47L77.98 10.13C77.77 9.55 77.68 8.94 77.71 8.32C77.74 7.71 77.89 7.1 78.15 6.54C78.41 5.98 78.78 5.48 79.24 5.07C79.69 4.66 80.23 4.33 80.81 4.12C81.33 3.93 81.88 3.83 82.43 3.84C84.36 3.84 86.17 5.01 86.86 6.92L87.12 7.62L87.32 8.18C87.14 8.16 86.95 8.15 86.77 8.15C86.24 8.15 85.7 8.24 85.17 8.43C82.73 9.32 81.46 12.02 82.35 14.45L79.95 15.46L79.93 15.47Z" fill="#00B3F9"/>
<path fill-rule="evenodd" clip-rule="evenodd" d="M18.88 54.77L41.03 46.75L35.39 31.32L13.23 39.34L18.88 54.77Z" fill="#3AD0F9"/>
<path fill-rule="evenodd" clip-rule="evenodd" d="M17.91 45.4L18.71 47.6L16.27 48.48L14.36 43.28L13.56 41.07L35.71 33.05L37.62 38.26L17.91 45.4Z" fill="#00B3F9"/>
<path fill-rule="evenodd" clip-rule="evenodd" d="M6.99 56.58L18.07 52.57L14.04 41.55L2.96 45.56L6.99 56.58Z" fill="#E8F3FF"/>
<path fill-rule="evenodd" clip-rule="evenodd" d="M18.84 52.47L7.77 56.48L5.86 51.27L14.49 48.14L15.3 50.35L17.74 49.47L18.84 52.47Z" fill="#3AD0F9"/>
<path fill-rule="evenodd" clip-rule="evenodd" d="M3.56 47.19L3.29 47.29L7.32 58.31L9.76 57.43L9.22 55.95L7.77 56.48L7.71 56.32L6.99 56.58L3.56 47.19Z" fill="#B8DAF2"/>
<path fill-rule="evenodd" clip-rule="evenodd" d="M14.36 43.28L3.56 47.19L6.99 56.58L7.71 56.32L5.86 51.27L14.49 48.14L14.81 49.02L16.27 48.49L14.36 43.28Z" fill="#00B3F9"/>
<path fill-rule="evenodd" clip-rule="evenodd" d="M42.65 53.3C41.77 53.3 40.94 52.76 40.63 51.89L31.76 27.64C31.57 27.12 31.59 26.55 31.81 26.05C32.03 25.54 32.44 25.15 32.95 24.93L77.04 6.47C77.58 6.24 78.19 6.25 78.74 6.48C79.28 6.72 79.7 7.16 79.9 7.71L90.38 36.37C90.48 36.64 90.52 36.93 90.51 37.22C90.49 37.51 90.42 37.79 90.29 38.05C90.16 38.31 89.98 38.54 89.76 38.73C89.54 38.92 89.28 39.06 89 39.14L43.29 53.2C43.08 53.26 42.87 53.29 42.65 53.29V53.3ZM36.5 28.09L43.97 48.51L85.56 35.72L76.62 11.29L36.5 28.09ZM96.96 35.34C96.32 35.34 95.69 35.06 95.26 34.52C94.52 33.59 94.69 32.24 95.63 31.51C100.14 27.99 101.85 22.04 99.89 16.7C97.93 11.34 92.74 7.88 87.07 8.08C86.79 8.09 86.51 8.05 86.24 7.95C85.98 7.85 85.73 7.7 85.53 7.51C85.32 7.32 85.16 7.09 85.04 6.83C84.92 6.57 84.86 6.29 84.85 6.01C84.83 5.44 85.04 4.89 85.43 4.47C85.82 4.06 86.36 3.81 86.93 3.79C94.51 3.51 101.35 8.12 103.94 15.23C106.54 22.32 104.27 30.21 98.29 34.88C97.91 35.18 97.44 35.34 96.96 35.34Z" fill="#102770"/>
<path fill-rule="evenodd" clip-rule="evenodd" d="M18.88 56.92C18 56.92 17.17 56.38 16.86 55.51L11.21 40.08C11.11 39.82 11.07 39.53 11.08 39.25C11.09 38.97 11.16 38.69 11.28 38.44C11.4 38.18 11.57 37.96 11.78 37.77C11.99 37.58 12.23 37.43 12.5 37.34L34.66 29.32C35.2 29.12 35.79 29.15 36.31 29.39C36.83 29.63 37.23 30.06 37.42 30.6L43.06 46.03C43.16 46.3 43.2 46.58 43.19 46.86C43.18 47.14 43.11 47.42 42.99 47.67C42.87 47.92 42.7 48.15 42.49 48.34C42.28 48.53 42.04 48.68 41.77 48.77L19.61 56.79C19.37 56.88 19.13 56.92 18.87 56.92H18.88ZM15.99 40.62L20.16 52.02L38.27 45.46L34.1 34.06L15.99 40.62ZM92.79 42.33C89.98 42.33 87.34 40.61 86.33 37.83L75.85 9.17C75.22 7.45 75.3 5.6 76.08 3.94C76.46 3.12 77 2.39 77.66 1.79C78.33 1.18 79.1 0.71 79.95 0.41C81.67 -0.21 83.54 -0.13 85.2 0.64C86.86 1.41 88.12 2.78 88.75 4.5L99.23 33.16C100.53 36.7 98.68 40.63 95.13 41.92C94.38 42.19 93.59 42.33 92.79 42.33ZM82.3 4.29C82 4.29 81.71 4.34 81.42 4.44C80.78 4.67 80.26 5.14 79.98 5.76C79.84 6.06 79.76 6.39 79.74 6.73C79.72 7.06 79.78 7.4 79.89 7.71L90.37 36.37C90.61 37.01 91.08 37.52 91.7 37.81C92.31 38.1 93.02 38.13 93.66 37.89C93.98 37.78 94.26 37.6 94.51 37.37C94.76 37.14 94.96 36.87 95.1 36.57C95.24 36.27 95.32 35.94 95.34 35.6C95.36 35.27 95.3 34.93 95.19 34.62L84.71 5.96C84.33 4.93 83.35 4.28 82.3 4.28V4.29Z" fill="#102770"/>
<path fill-rule="evenodd" clip-rule="evenodd" d="M56.1 57.95C55.53 57.95 54.98 57.73 54.58 57.32C54.18 56.92 53.95 56.37 53.95 55.8V48.76C53.95 48.19 54.18 47.64 54.58 47.24C54.98 46.84 55.53 46.61 56.1 46.61C56.67 46.61 57.22 46.84 57.62 47.24C58.02 47.64 58.25 48.19 58.25 48.76V55.8C58.25 56.37 58.02 56.92 57.62 57.32C57.22 57.72 56.67 57.95 56.1 57.95ZM6.99 58.72C6.11 58.72 5.28 58.18 4.96 57.31L0.94 46.29C0.84 46.02 0.8 45.74 0.81 45.46C0.82 45.18 0.89 44.9 1.01 44.65C1.13 44.39 1.3 44.17 1.51 43.98C1.72 43.79 1.96 43.64 2.23 43.55L13.31 39.54C13.85 39.34 14.44 39.37 14.96 39.61C15.48 39.85 15.88 40.28 16.07 40.82L20.1 51.84C20.51 52.95 19.93 54.18 18.81 54.59L7.73 58.6C7.49 58.69 7.24 58.73 6.99 58.73V58.72ZM5.72 46.84L8.28 53.83L15.31 51.29L12.75 44.3L5.72 46.85V46.84Z" fill="#102770"/>
<path fill-rule="evenodd" clip-rule="evenodd" d="M60.81 60.5C60.81 63.09 58.7 65.19 56.09 65.19C53.48 65.19 51.37 63.09 51.37 60.5C51.37 57.91 53.48 55.81 56.09 55.81C58.7 55.81 60.81 57.91 60.81 60.5Z" fill="#FFF6E1"/>
<path fill-rule="evenodd" clip-rule="evenodd" d="M56.1 67.33C52.31 67.33 49.23 64.26 49.23 60.49C49.23 56.72 52.31 53.66 56.1 53.66C59.89 53.66 62.97 56.73 62.97 60.49C62.97 64.25 59.89 67.33 56.1 67.33ZM56.1 57.95C54.69 57.95 53.54 59.09 53.54 60.5C53.54 61.18 53.81 61.83 54.29 62.31C54.77 62.79 55.42 63.06 56.1 63.06C56.78 63.06 57.43 62.79 57.91 62.31C58.39 61.83 58.66 61.18 58.66 60.5C58.66 59.09 57.51 57.95 56.1 57.95Z" fill="#102770"/>
<path fill-rule="evenodd" clip-rule="evenodd" d="M56.1 111.04C54.91 111.04 53.95 109.87 53.95 108.43V65.64C53.95 64.2 54.91 63.03 56.1 63.03C57.29 63.03 58.25 64.2 58.25 65.64V108.43C58.25 109.87 57.29 111.04 56.1 111.04Z" fill="#102770"/>
<path fill-rule="evenodd" clip-rule="evenodd" d="M91.46 102.52C91.18 102.52 90.9 102.47 90.64 102.36C90.38 102.25 90.14 102.09 89.94 101.89L54.57 66.7C53.73 65.86 53.73 64.51 54.57 63.67C54.97 63.27 55.52 63.04 56.09 63.04C56.66 63.04 57.21 63.27 57.61 63.67L92.98 98.86C93.82 99.7 93.82 101.05 92.98 101.89C92.78 102.09 92.54 102.25 92.28 102.36C92.02 102.47 91.74 102.52 91.46 102.52Z" fill="#102770"/>
<path fill-rule="evenodd" clip-rule="evenodd" d="M7.8 60.93C6.92 60.93 6.09 60.39 5.78 59.52L0.13 44.09C0.03 43.82 -0.01 43.54 0 43.26C0.01 42.98 0.08 42.7 0.2 42.45C0.32 42.19 0.49 41.97 0.7 41.78C0.91 41.59 1.15 41.44 1.42 41.35C1.96 41.16 2.55 41.18 3.06 41.42C3.58 41.66 3.98 42.09 4.18 42.63L9.82 58.06C10.23 59.17 9.65 60.4 8.53 60.81C8.29 60.9 8.04 60.94 7.79 60.94L7.8 60.93ZM20.73 102.52C20.45 102.52 20.17 102.47 19.91 102.36C19.65 102.25 19.41 102.09 19.21 101.89C18.37 101.05 18.37 99.7 19.21 98.86L54.58 63.67C54.98 63.27 55.53 63.04 56.1 63.04C56.67 63.04 57.22 63.27 57.62 63.67C58.46 64.51 58.46 65.86 57.62 66.7L22.25 101.89C22.05 102.09 21.81 102.25 21.55 102.36C21.29 102.47 21.01 102.52 20.73 102.52Z" fill="#102770"/>
<path fill-rule="evenodd" clip-rule="evenodd" d="M31.01 67.1C31.01 67.1 30.95 67.17 30.91 67.2C30.94 67.23 30.98 67.26 31.01 67.3C31.04 67.27 31.07 67.23 31.11 67.2C31.08 67.17 31.04 67.14 31.01 67.1Z" fill="#9AE0E6"/>
</g>
<defs>
<clipPath id="clip0_1_121">
<rect width="105" height="111.04" fill="white"/>
</clipPath>
</defs>
</svg>
